assets/Person rowing boat/Medium-Dark/Flat/person_rowing_boat_flat_medium-dark.svg

<svg width="32" height="32" viewBox="0 0 32 32" fill="none" xmlns="http://www.w3.org/2000/svg">
<path d="M14.74 6.62073L13.54 7.90073L14.84 9.13073L16.04 7.83073L14.74 6.62073Z" fill="#8B5C56"/>
<path d="M12.5501 8.10076C12.8101 7.92076 13.2301 7.72076 13.7201 7.78076C14.9601 7.95076 15.2501 8.74076 15.2501 8.74076C15.2501 8.74076 15.6701 9.71076 14.5701 10.9608C14.5601 10.9608 13.8101 12.2008 13.5801 13.8208H11.3081L9.6001 12.6508C10.3801 9.98076 12.1801 8.25076 12.5501 8.10076Z" fill="#FF6723"/>
<path d="M15.4 14.5408L14.24 16.9008C13.99 17.4308 13.32 17.6108 12.84 17.2708L10.41 15.5608C10.41 15.5608 9.37998 14.7808 9.35998 14.0608C9.33998 13.3408 9.59998 12.6508 9.59998 12.6508L13.53 13.8008" fill="#9B9B9B"/>
<path d="M16.3 8.63068C15.7 8.45068 14.83 7.87068 14.76 7.08068L14.78 6.04068V4.95068C15 4.22068 15.77 3.79068 16.51 4.00068L17.39 4.25068C18.12 4.47068 18.55 5.24068 18.34 5.98068L18.1806 6.5235C18.2306 6.76349 18.2805 6.90465 18.3154 7.00321C18.3571 7.12124 18.3773 7.1782 18.3501 7.27067C18.3001 7.44067 18.0701 7.53067 17.9001 7.48067L17.8985 7.48022C17.6303 8.33964 17.3154 8.92574 16.3 8.63068Z" fill="#966661"/>
<path d="M17.77 6.65073C17.82 6.66073 17.88 6.63073 17.9 6.57073C17.9 6.57073 17.9 6.57073 17.9 6.56073C17.97 6.31073 17.8 6.11073 17.6 6.06073C17.4 6.01073 17.15 6.08073 17.07 6.32073C17.07 6.32073 17.07 6.32073 17.07 6.33073C17.05 6.39073 17.08 6.45073 17.13 6.47073L17.77 6.65073Z" fill="white"/>
<path d="M17.8501 6.67079C17.8701 6.64079 17.8901 6.60079 17.9001 6.56079C17.9501 6.38079 17.8801 6.20079 17.7401 6.16079C17.6001 6.12079 17.4401 6.23079 17.3901 6.41079C17.3801 6.45079 17.3701 6.49079 17.3701 6.53079L17.8501 6.67079Z" fill="#7D4533"/>
<path d="M17.77 6.65072C17.8 6.62072 17.82 6.59072 17.84 6.54072C17.87 6.44072 17.83 6.34072 17.75 6.31072C17.67 6.29072 17.58 6.35072 17.55 6.45072C17.54 6.49072 17.54 6.54072 17.55 6.57072L17.77 6.65072Z" fill="black"/>
<path d="M17.8618 6.41492C17.871 6.38308 17.8569 6.35106 17.8304 6.3434C17.8038 6.33573 17.7749 6.35532 17.7657 6.38716C17.7565 6.41899 17.7705 6.45102 17.7971 6.45868C17.8236 6.46635 17.8526 6.44675 17.8618 6.41492Z" fill="white"/>
<path d="M17.046 7.2875C17.0975 7.28526 17.1411 7.3252 17.1433 7.37671C17.151 7.55392 17.2962 7.68532 17.476 7.6775C17.5275 7.67526 17.5711 7.7152 17.5733 7.76671C17.5755 7.81822 17.5356 7.86179 17.4841 7.86403C17.2039 7.87621 16.9691 7.66762 16.9568 7.38482C16.9545 7.33331 16.9945 7.28974 17.046 7.2875Z" fill="#990838"/>
<path d="M15.91 5.50079C15.91 5.50079 16.11 4.81079 17.25 5.14079C18.21 5.42079 18.57 5.16079 18.73 4.62079C18.89 4.04079 18.47 3.77079 18.22 3.70079C17.8918 3.60578 17.6998 3.60029 17.5399 3.59573C17.3297 3.58972 17.1752 3.58531 16.84 3.38079C16.02 2.88079 14.66 2.66079 14.25 4.09079C13.68 6.06079 14.39 6.28079 14.39 6.28079C13.84 6.12079 13.69 6.86079 14.11 6.98079C14.1417 6.99093 14.1774 7.00475 14.216 7.01971C14.4821 7.12281 14.8867 7.27957 15.07 6.65079C15.1184 6.48579 15.167 6.3437 15.2151 6.22143C15.1805 6.11797 15.1762 6.00367 15.21 5.89079C15.2923 5.61648 15.5585 5.4425 15.8329 5.48351C15.8818 5.48436 15.91 5.50079 15.91 5.50079Z" fill="#2D242D"/>
<path d="M17.2268 5.71611C17.2073 5.66463 17.2332 5.60706 17.2847 5.58754L17.2867 5.58678L17.2905 5.58545L17.3029 5.58132C17.3133 5.578 17.3279 5.57367 17.3462 5.56906C17.3829 5.55986 17.4347 5.54947 17.4976 5.54394C17.6232 5.53289 17.7954 5.54108 17.979 5.61897C18.0297 5.64048 18.0534 5.699 18.0318 5.74969C18.0103 5.80038 17.9518 5.82404 17.9011 5.80254C17.7547 5.74043 17.6169 5.73362 17.515 5.74257C17.4642 5.74704 17.4229 5.7554 17.3948 5.76245C17.3808 5.76597 17.3702 5.76914 17.3635 5.77129L17.3554 5.77398C17.2894 5.7907 17.2422 5.74237 17.2268 5.71611Z" fill="#372128"/>
<path d="M26.9401 16.5907L16.4165 15.5942L5.59009 16.5907L10.4301 24.6307H26.9801L26.9401 16.5907Z" fill="#86D72F"/>
<path d="M26.81 14.4507H5.01995C4.42995 14.4507 3.94995 14.9307 3.94995 15.5207C3.94995 16.1107 4.42995 16.5907 5.01995 16.5907H26.82C27.41 16.5907 27.89 16.1107 27.89 15.5207C27.88 14.9307 27.4 14.4507 26.81 14.4507Z" fill="#44911B"/>
<path d="M21.13 11.6207C21.06 11.4607 20.88 11.3907 20.73 11.4607L19.99 11.7707L20.23 12.3407L20.97 12.0307C21.12 11.9607 21.2 11.7807 21.13 11.6207Z" fill="#764C49"/>
<path d="M30 19.4707C28.25 19.4707 28.25 20.5107 26.5 20.5107C24.75 20.5107 24.75 19.4707 23 19.4707C21.25 19.4707 21.25 20.5107 19.5 20.5107C17.75 20.5107 17.75 19.4707 16 19.4707C14.25 19.4707 14.25 20.5107 12.5 20.5107C10.75 20.5107 10.75 19.4707 9 19.4707C7.25 19.4707 7.25 20.5107 5.5 20.5107C3.75 20.5107 3.75 19.4707 2 19.4707V28.9707H29.97L30 19.4707Z" fill="#0084CE"/>
<path d="M21.3301 11.1408C21.5701 10.9108 21.9501 10.9108 22.1801 11.1408C22.4101 11.3708 22.4101 11.7508 22.1801 11.9908L14.3954 19.7755C14.7398 20.4733 14.6214 21.3415 14.0401 21.9308L11.6001 24.3708C10.8701 25.1008 9.68009 25.1008 8.95009 24.3708C8.22009 23.6408 8.22009 22.4508 8.95009 21.7208L11.3901 19.2808C11.9715 18.6993 12.8448 18.581 13.545 18.9258L21.3301 11.1408Z" fill="#F3C07B"/>
<path d="M30 23.0807C28.25 23.0807 28.25 24.1207 26.5 24.1207C24.75 24.1207 24.75 23.0807 23 23.0807C21.25 23.0807 21.25 24.1207 19.5 24.1207C17.75 24.1207 17.75 23.0807 16 23.0807C14.25 23.0807 14.25 24.1207 12.5 24.1207C10.75 24.1207 10.75 23.0807 9 23.0807C7.25 23.0807 7.25 24.1207 5.5 24.1207C3.75 24.1207 3.75 23.0807 2 23.0807V28.9807H29.97L30 23.0807Z" fill="#26C9FC"/>
<path d="M21.83 12.6207C21.83 12.1407 21.44 11.7507 20.96 11.7507L17.15 11.7707C16.94 11.7707 16.74 11.6607 16.63 11.4807L16.62 11.4607L15.21 9.20068L13.73 10.1107L15.13 12.3707C15.24 12.5607 15.38 12.7307 15.54 12.8807C15.98 13.2907 16.56 13.5207 17.18 13.5107L20.96 13.4907C21.44 13.4907 21.83 13.1007 21.83 12.6207Z" fill="#966661"/>
<path d="M13.4201 8.39077C12.9201 8.70077 12.7701 9.36077 13.0801 9.87077L13.9201 11.2308C14.1101 11.5508 14.5301 11.6508 14.8501 11.4508L16.1301 10.6508L15.0201 8.71077C14.7201 8.18077 14.0301 8.01077 13.5201 8.33077L13.4201 8.39077Z" fill="#FF8101"/>
</svg>

<svg xmlns="http://www.w3.org/2000/svg" width="32" height="32" fill="none"><path fill="#8B5C56" d="m14.74 6.62-1.2 1.28 1.3 1.23 1.2-1.3-1.3-1.21Z"/><path fill="#FF6723" d="M12.55 8.1c.26-.18.68-.38 1.17-.32 1.24.17 1.53.96 1.53.96s.42.97-.68 2.22c-.01 0-.76 1.24-.99 2.86h-2.272L9.6 12.65c.78-2.67 2.58-4.4 2.95-4.55Z"/><path fill="#9B9B9B" d="m15.4 14.54-1.16 2.36c-.25.53-.92.71-1.4.37l-2.43-1.71s-1.03-.78-1.05-1.5c-.02-.72.24-1.41.24-1.41l3.93 1.15"/><path fill="#966661" d="M16.3 8.63c-.6-.18-1.47-.76-1.54-1.55l.02-1.04V4.95c.22-.73.99-1.16 1.73-.95l.88.25c.73.22 1.16.99.95 1.73l-.16.543c.05.24.1.382.135.48.042.118.062.175.035.268-.05.17-.28.26-.45.21h-.002c-.268.859-.583 1.445-1.598 1.15Z"/><path fill="#fff" d="M17.77 6.65c.05.01.11-.02.13-.08v-.01c.07-.25-.1-.45-.3-.5-.2-.05-.45.02-.53.26v.01c-.02.06.01.12.06.14l.64.18Z"/><path fill="#7D4533" d="M17.85 6.67a.37.37 0 0 0 .05-.11c.05-.18-.02-.36-.16-.4-.14-.04-.3.07-.35.25-.01.04-.02.08-.02.12l.48.14Z"/><path fill="#000" d="M17.77 6.65c.03-.03.05-.06.07-.11.03-.1-.01-.2-.09-.23-.08-.02-.17.04-.2.14-.01.04-.01.09 0 .12l.22.08Z"/><path fill="#fff" d="M17.862 6.415c.009-.032-.005-.064-.032-.072-.026-.007-.055.012-.064.044-.01.032.005.064.031.072.027.007.056-.012.065-.044Z"/><path fill="#990838" d="M17.046 7.287a.093.093 0 0 1 .097.09.313.313 0 0 0 .333.3.093.093 0 1 1 .008.187.5.5 0 0 1-.527-.48.093.093 0 0 1 .089-.097Z"/><path fill="#2D242D" d="M15.91 5.5s.2-.69 1.34-.36c.96.28 1.32.02 1.48-.52.16-.58-.26-.85-.51-.92-.328-.094-.52-.1-.68-.104-.21-.006-.365-.01-.7-.215-.82-.5-2.18-.72-2.59.71-.57 1.97.14 2.19.14 2.19-.55-.16-.7.58-.28.7.032.01.067.024.106.039.266.103.67.26.854-.37a5.09 5.09 0 0 1 .145-.429.57.57 0 0 1 .618-.738c.049.001.077.018.077.018Z"/><path fill="#372128" d="M17.227 5.716a.1.1 0 0 1 .058-.128l.002-.001.004-.002.012-.004a.98.98 0 0 1 .195-.037c.125-.011.297-.003.481.075a.1.1 0 1 1-.078.184.806.806 0 0 0-.538-.032l-.008.003c-.066.017-.113-.032-.128-.058Z"/><path fill="#86D72F" d="m26.94 16.59-10.524-.996-10.826.997 4.84 8.04h16.55l-.04-8.04Z"/><path fill="#44911B" d="M26.81 14.45H5.02a1.071 1.071 0 0 0 0 2.14h21.8c.59 0 1.07-.48 1.07-1.07-.01-.59-.49-1.07-1.08-1.07Z"/><path fill="#764C49" d="M21.13 11.62a.3.3 0 0 0-.4-.16l-.74.31.24.57.74-.31c.15-.07.23-.25.16-.41Z"/><path fill="#0084CE" d="M30 19.47c-1.75 0-1.75 1.04-3.5 1.04s-1.75-1.04-3.5-1.04-1.75 1.04-3.5 1.04-1.75-1.04-3.5-1.04-1.75 1.04-3.5 1.04-1.75-1.04-3.5-1.04-1.75 1.04-3.5 1.04-1.75-1.04-3.5-1.04v9.5h27.97l.03-9.5Z"/><path fill="#F3C07B" d="M21.33 11.14a.61.61 0 0 1 .85 0c.23.23.23.61 0 .85l-7.785 7.786a1.883 1.883 0 0 1-.355 2.155l-2.44 2.44c-.73.73-1.92.73-2.65 0s-.73-1.92 0-2.65l2.44-2.44a1.878 1.878 0 0 1 2.155-.355l7.785-7.785Z"/><path fill="#26C9FC" d="M30 23.08c-1.75 0-1.75 1.04-3.5 1.04s-1.75-1.04-3.5-1.04-1.75 1.04-3.5 1.04-1.75-1.04-3.5-1.04-1.75 1.04-3.5 1.04-1.75-1.04-3.5-1.04-1.75 1.04-3.5 1.04-1.75-1.04-3.5-1.04v5.9h27.97l.03-5.9Z"/><path fill="#966661" d="M21.83 12.62a.87.87 0 0 0-.87-.87l-3.81.02c-.21 0-.41-.11-.52-.29l-.01-.02-1.41-2.26-1.48.91 1.4 2.26a2.339 2.339 0 0 0 2.05 1.14l3.78-.02c.48 0 .87-.39.87-.87Z"/><path fill="#FF8101" d="M13.42 8.39c-.5.31-.65.97-.34 1.48l.84 1.36c.19.32.61.42.93.22l1.28-.8-1.11-1.94c-.3-.53-.99-.7-1.5-.38l-.1.06Z"/></svg>
